!!!COM: Music21
!!!OTL: polka_Casey-Finnegans
!!!OMV: polka_Casey-Finnegans
**kern
*clefG2
*k[f#c#]
*D:
*M2/4
=1
32aLLL
32aJ
16a
16dd
16ff#JJ
=
16eeLL
16ddJ
8bJ
4ryy
=
32aLLL
32ddJ
16ff#
16gg
16ff#JJ
4ryy
=
4ee
4ryy
=
32aLLL
32aJ
16a
16dd
16ff#JJ
4ryy
=
16eeLL
16ddJ
8bJ
4ryy
=
16aLL
16cc#
16ee
16cc#JJ
4ryy
=
8ddL
8ddJ
4ryy
!!linebreak:original
=||
*M2/4
32aLLL
32aJ
16a
16dd
16ff#JJ
=
16eeLL
16ddJ
8bJ
4ryy
=
32aLLL
32ddJ
16ff#
16gg
16ff#JJ
4ryy
=
4ee
4ryy
=
32aLLL
32aJ
16a
16dd
16ff#JJ
4ryy
=
16eeLL
16ddJ
8bJ
4ryy
=
16aLL
16cc#
16ee
16cc#JJ
4ryy
=
8ddL
8ddJ
4ryy
!!linebreak:original
=||
32bLLL
32bJ
16b
16ff#
16eeJJ
4ryy
=
32aLLL
32aJ
16a
16ee
16ddJJ
4ryy
=
32gLLL
32gJ
16g
16dd
16cc#JJ
4ryy
=
8f#L
8aJ
4ryy
=
32bLLL
32bJ
16b
16ff#
16eeJJ
4ryy
=
32aLLL
32aJ
16a
16ee
16ddJJ
4ryy
=
32bLLL
32ggJ
16ff#
16ee
16ddJJ
4ryy
!!linebreak:original
=
16cc#LL
16b
16a
16f#JJ
4ryy
=
32aLLL
32aJ
16a
16dd
16ff#JJ
4ryy
=
16eeLL
16ddJ
8bJ
4ryy
=
32aLLL
32ddJ
16ff#
16gg
16ff#JJ
4ryy
=
8eeL
8aaJ
4ryy
=
32aLLL
32aJ
16a
16dd
16ff#JJ
4ryy
=
16eeLL
16ddJ
8bJ
4ryy
=
16aLL
16cc#
16ee
16cc#JJ
4ryy
!!linebreak:original
=
4dd
4ryy
=||
*-
